X: 111938
T: Kate of Garnevilla
S: "Roche Collection of Traditional Irish Music" [II/61/344]
L: 1/8
M: 2/4
R: polka
K: D
AF FE/D/ | F>E Fd | AF FE/D/ | E>D EF |
A>F ED | d>e fe | d/c/B/A/ dF | E>D EF :|
AB/c/ df | e>d ef | AB/c/ dF | E>D EF |
AB/c/ df | e/d/g/f/ ed/e/ | f>e dF | E>D EF :|
